X:78
T:Nu \"a de jul igen
T:Skr\"addarepolskan
R:sl\"angpolska
H:jfr #45, andra delen jfr #38
A:\"Osterg\"otland
B:Variant 1: SvL \"Ogl 56, efter Gustaf Andersson, Risinge
B:Variant 2: SvL \"Ogl 367, efter Nils Olsson, Sj\"ogestad, V{\aa}nga
B:Variant 3: Bagge 7
Z:id:hn-sp-78
M:3/4
L:1/16
K:D
P:variant 1
A2dd d2A2 FGFE | D2dd d2A2 FDFA |
w:Nu \"a de jul i-gen_ d\"a_ v\"an-der_ om i-gen_ ja_
d2df e2eg f2a2 | a2ag b2bg a4 :|
w:tror att_ ju-la_ r\"ack-er \"an te_ p{\aa}__ska.
|: b2g2 gfgb b2g2 | agfe dcdf a2f2 | gfed cdef gfge |
dcBc dcdA FGFE | D2g2 gfgb b2g2 | agfe defg a2f2 | gfed cdef gfge |
dcBc c2d2 d4 :|
P:variant 2
|: A2dd d2A2 FGFE | D2dd d2A2 FDFA | d2df e2eg f2a2- | a2{ba}ga b2g2 a4 :|
|: a2g2 gfga b2g2 | g2fe defg a2f2 | gfed cdef gfge |
dcBc dedA FGFE | a2g2 gfga b2g2 | g2fe defg a2f2 | gfed cdef gfge |
dcBc e2d2 d4 :||: d2d'd' d'2d'2 d'2d'2 | d'2c'c' c'2c'2 c'2c'2 |
c'2bb b2b2 b2b2 | b2aa a2a2 a4 | a2g2 gfga b2g2 | g2fe defg a2f2 |
f2ed cdef gfge | dcBc e2d2 d4 :|
P:variant 3
|: A3d d2A2 F2A2 | A3d d2A2 F2A2 | d2d2 e2e2 f2f2 | g2(fg) a4 a4 :|
|: a3g g2g2 b3g | g3f f2f2 a3f | f2(ef) e2e2 g3e | dcBc d4 d4 :|
.d3d' d'2d'2 f'3d' | d'3c' c'2c'2 e'3c' | c'2(bc') b2b2 d'3b |
c'bab a4 a4 | a3g g2g2 b3g | g3f f2f2 a3f | f2(ef) e2e2 g3e |
dcBc d4 d4 || 

